X:1
T:Title
%%score { ( 1 4 ) | ( 2 3 ) }
L:1/8
Q:1/4=110
M:3/4
K:F
V:1 treble nm="Grand Piano"
V:4 treble 
V:2 bass 
V:3 bass 
V:1
 c2 A2 [A,F]2 | [CEG]4 [CEG]2 | E2- [EB]2 E2 | F2 A2 c2 | d2 c2 A2 | [EG]4 [FA]2 | %6
w: Robert~Lowry * *||||||
 [GB]2 [FA]2 [EG]2 | A6 | c2 A2 [A,F]2 | [CEG]4 [CEG]2 | E2- [EB]2 E2 | F2 A2 c2 | B2 c2 [Fd]2 | %13
w: |||||||
 [Fc]4 [CFA]2 | [B,EG]2 F2 [B,EG]2 | [A,F]6 | [DFB]4 [Fd]2 | [Fc]4 [CFA]2 | [CGB]4 [CEc]2 | %19
w: ||||||
 [CFA]6 | c2 z2 [CGB]2 | [CFA]2 [CF]2 [CFA]2 | [B,DG]2 [B,D]2 [B,DF]2 | [G,CE]6 | %24
w: |||||
 [A,CF]2 [CEG]2 [_EFA]2 | c2 z2 [B,DG]2 | C2- [CG]2 [G,CE]2 | [A,CF]6 |] %28
w: ||||
V:2
 [F,F]2- [F,CF]2 F,2 | C,4 C,2 | z2 G,2 [C,B,C]2 | [A,C]2[K:treble] [CF]2 [F,A,F]2 | %4
 [F,F]2- [F,A,F]2 [F,CF]2 | [C,C]4 [C,C]2 | [C,C]4 [C,C]2 | [F,CF]6 | [F,F]2- [F,CF]2 F,2 | %9
 C,4 C,2 | z2 G,2 [C,B,C]2 | [A,C]2[K:treble] [CF]2 [F,A,F]2 | [D,B,]2 [C,A,]2 [B,,B,]2 | %13
 [F,A,]4 F,2 | z2 A,2 C,2 | F,6 | B,,4 [B,,B,]2 | [F,A,]4 F,2 | E,4 C,2 | F,6 | z2 G2 C,2 | %21
 z2 A,2 F,2 | z2 F,2 B,,2 | C,6 | F,2 C,2 F,2 | z2[K:treble] B2[K:bass] B,,2 | z2 B,2 C,2 | F,,6 |] %28
V:3
 A,2 z2 z2 | x6 | C,4 z2 | F,4[K:treble] z2 | B,2 z2 z2 | x6 | x6 | x6 | A,2 z2 z2 | x6 | C,4 z2 | %11
 F,4[K:treble] z2 | x6 | x6 | C,4 z2 | x6 | x6 | x6 | x6 | x6 | C,4 z2 | F,4 z2 | B,,4 z2 | x6 | %24
 x6 | B,,4[K:treble][K:bass] z2 | C,4 z2 | x6 |] %28
V:4
 x6 | x6 | [CG]2 z2 z2 | x6 | x6 | x6 | x6 | x6 | x6 | x6 | [CG]2 z2 z2 | x6 | F4 z2 | x6 | x6 | %15
 x6 | x6 | x6 | x6 | x6 | [CE]4 z2 | x6 | x6 | x6 | x6 | [DF]4 z2 | [A,F]2 z2 z2 | x6 |] %28

